src/images/svg/security/high.svg

<svg width="48" height="48" viewBox="0 0 48 48" fill="none" xmlns="http://www.w3.org/2000/svg">
<path fill-rule="evenodd" clip-rule="evenodd" d="M39 0C43.9706 0 48 4.0294 48 9V39C48 43.9706 43.9706 48 39 48H9C4.0294 48 0 43.9706 0 39V9C0 4.0294 4.0294 0 9 0H39Z" fill="#6950A1"/>
<path fill-rule="evenodd" clip-rule="evenodd" d="M25.1468 19.3615C24.4581 18.8795 23.5415 18.8795 22.8529 19.3615L12.8529 26.3615C11.948 26.995 11.7279 28.242 12.3614 29.1469C12.9948 30.0518 14.2419 30.2719 15.1468 29.6385L23.9998 23.4413L32.8529 29.6385C33.7578 30.2719 35.0049 30.0518 35.6383 29.1469C36.2717 28.242 36.0517 26.995 35.1468 26.3615L25.1468 19.3615Z" fill="white"/>
</svg>

<svg width="48" height="48" fill="none" xmlns="http://www.w3.org/2000/svg"><path fill-rule="evenodd" clip-rule="evenodd" d="M39 0a9 9 0 0 1 9 9v30a9 9 0 0 1-9 9H9a9 9 0 0 1-9-9V9a9 9 0 0 1 9-9h30Z" fill="#6950A1"/><path fill-rule="evenodd" clip-rule="evenodd" d="M25.147 19.361a2 2 0 0 0-2.294 0l-10 7a2 2 0 1 0 2.294 3.277L24 23.442l8.853 6.198a2 2 0 0 0 2.294-3.277l-10-7Z" fill="#fff"/></svg>
